dhis-2/dhis-support/dhis-support-system/src/main/resources/SVGs/medicines_outline.svg

<svg width="48" height="48" viewBox="0 0 48 48" fill="none" xmlns="http://www.w3.org/2000/svg">
<path fill-rule="evenodd" clip-rule="evenodd" d="M27.8667 4.05861C25.9597 4.05471 24.4617 4.62801 23.7108 5.80269C22.2248 8.13876 24.1338 12.1519 28.1407 15.5139C29.7137 16.8919 29.7947 16.9079 30.9257 15.1369L35.2556 8.35936C36.4416 6.57058 35.9876 6.54238 34.4766 5.77539C32.0907 4.64341 29.7737 4.06251 27.8667 4.05861ZM8.72895 4.06051C7.95955 4.08391 7.18676 4.33111 6.51217 4.8164L5.70168 5.4004C3.90291 6.69458 3.49531 9.18395 4.78959 10.9819L7.12547 14.2299L9.46334 17.4768L9.86763 17.1858L14.5414 23.6778C15.8354 25.4767 18.3243 25.8837 20.1233 24.5898C21.9223 23.2958 22.3273 20.8048 21.0333 19.0058L16.3613 12.5119L16.7683 12.2209L14.4324 8.97265L12.0964 5.72659C11.2874 4.60231 10.0114 4.02171 8.72895 4.06051ZM27.6647 4.53121C29.3007 4.53461 31.9907 5.0346 34.0376 6.00589C35.6766 6.80758 35.6466 6.90808 34.4966 8.56446L30.2757 15.1779C29.6427 16.1609 29.6137 16.0119 28.2647 14.8299C24.8267 11.9449 22.7568 8.27196 24.0318 6.26759C24.6767 5.2597 26.0287 4.52791 27.6647 4.53121ZM8.79194 4.59771C9.77083 4.63451 10.8699 5.0789 11.6689 6.00199L12.5749 7.25387L14.3169 9.67374L14.8969 10.4769L16.0619 12.0959L15.0169 12.8479L13.6399 13.8379L13.0339 14.2749L12.5949 14.5919L11.9909 15.0269L9.56933 16.7679L8.40525 15.1499L7.82516 14.3459L6.66117 12.7299L6.08298 11.9259L4.92089 10.3089C3.9557 8.96715 4.99609 6.59538 5.60058 6.14649C6.25878 5.63499 6.52057 5.4503 7.24896 4.957C7.65956 4.70061 8.20465 4.57561 8.79194 4.59771ZM37.4716 7.72657C37.1216 7.76207 36.8246 8.17866 36.2736 9.04095L31.9167 15.8669C30.7117 17.7488 31.2157 17.7218 32.7526 18.4978C37.4996 20.7308 41.9555 20.7778 43.4495 18.4388C44.9405 16.0969 43.0175 12.0699 38.9886 8.70306C38.2226 8.03726 37.8206 7.69097 37.4716 7.72657ZM37.6486 8.36126C37.9046 8.42326 38.2496 8.75645 38.9246 9.34765C42.3625 12.2319 44.4315 15.9059 43.1565 17.9098C42.5125 18.9178 41.1605 19.6518 39.5236 19.6478C37.8876 19.6448 35.1986 19.1448 33.1506 18.1738C31.5117 17.3718 31.5417 17.2698 32.6916 15.6129L36.9106 8.99995C37.2276 8.50816 37.3936 8.29926 37.6486 8.36126ZM15.9439 12.8109C17.4878 14.9549 19.1078 17.2048 20.6508 19.3498C21.6538 20.8478 21.4488 22.9578 19.8168 24.1878C18.6808 25.0437 16.2709 25.1468 14.9149 23.3118C13.3719 21.1688 11.8289 19.0278 10.2839 16.8849C11.1149 16.2869 12.6909 15.1539 13.5219 14.5569L15.9439 12.8109ZM34.7256 25.0058C33.0646 24.9558 31.3707 25.3387 29.8187 26.2007C25.6777 28.5127 23.9158 33.4796 25.5497 37.8296C25.8647 38.7326 26.3187 38.4856 26.7387 38.2516L41.6975 29.9277C42.1135 29.6957 42.4295 29.3247 41.9455 28.6617C40.1666 26.3767 37.4926 25.0888 34.7256 25.0058ZM34.5516 25.5367C37.0656 25.6117 39.5496 26.4727 41.1665 28.5347C41.6065 29.1337 41.6445 29.3667 41.2665 29.5757L26.6177 37.7316C26.2357 37.9436 26.1797 38.0726 25.8937 37.2576C24.4087 33.3306 26.3307 28.7017 30.0947 26.6147C31.5047 25.8367 33.0416 25.4917 34.5516 25.5367ZM17.7648 27.3067C17.6288 27.3127 17.4968 27.3407 17.3738 27.3957L5.12199 32.9687C4.1086 33.4296 3.62551 35.6126 4.458 36.2866L13.7689 43.8195C14.5089 44.4185 16.5428 43.4945 16.7628 42.4975L19.6628 29.3357C19.7868 28.7727 19.4598 28.1767 18.9798 27.7767C18.6188 27.4777 18.1728 27.2877 17.7648 27.3067ZM17.7448 27.9467C18.6548 27.8697 19.3458 28.4437 18.9348 30.2577L16.4418 41.5615C16.4138 42.7715 14.6479 43.9145 13.8189 43.2065L5.34079 36.3476C3.9795 35.6426 4.5869 33.7806 5.36819 33.4196C8.75094 32.0777 16.507 28.3577 16.796 28.2207C17.115 28.0717 17.442 27.9727 17.745 27.9467H17.7448ZM42.7895 30.5487C42.5745 30.5267 42.3415 30.6567 42.1075 30.7867L27.2237 39.0696C26.7847 39.3136 26.4477 39.6606 26.9397 40.3356C29.7847 44.0035 34.9346 45.1125 39.0766 42.8105C43.2055 40.5056 44.9725 35.5606 43.3635 31.2207C43.2015 30.7437 43.0045 30.5707 42.7895 30.5487ZM42.6025 31.1387C42.6995 31.1817 42.7855 31.3517 42.9285 31.7597C44.4135 35.6856 42.4925 40.3166 38.7296 42.4035C37.3186 43.1815 35.7796 43.5275 34.2706 43.4815C31.7557 43.4075 29.2717 42.5465 27.6547 40.4836C27.2147 39.8856 27.1777 39.6506 27.5557 39.4406L42.2035 31.2847C42.3945 31.1797 42.5045 31.0947 42.6025 31.1387Z" fill="#333333"/>
</svg>

<?xml version="1.0" encoding="UTF-8" standalone="no"?>
<!-- Created with Inkscape (http://www.inkscape.org/) -->
<svg id="svg8" xmlns:rdf="http://www.w3.org/1999/02/22-rdf-syntax-ns#" xmlns="http://www.w3.org/2000/svg" height="48" viewBox="0 0 12.7 12.7" width="48" version="1.1" xmlns:cc="http://creativecommons.org/ns#" xmlns:dc="http://purl.org/dc/elements/1.1/">
 <title id="title4753">UIO-icon</title>
 <metadata id="metadata5">
  <rdf:RDF>
   <cc:Work rdf:about="">
    <dc:format>image/svg+xml</dc:format>
    <dc:type rdf:resource="http://purl.org/dc/dcmitype/StillImage"/>
    <dc:title>UIO-icon</dc:title>
    <dc:creator>
     <cc:Agent>
      <dc:title>Joaquín Urbano</dc:title>
     </cc:Agent>
    </dc:creator>
    <dc:rights>
     <cc:Agent>
      <dc:title>GPL</dc:title>
     </cc:Agent>
    </dc:rights>
   </cc:Work>
  </rdf:RDF>
 </metadata>
 <path id="path878" d="m27.867 4.0586c-1.907-0.0039-3.405 0.5694-4.156 1.7441-1.486 2.3361 0.423 6.3493 4.43 9.7113 1.573 1.378 1.654 1.394 2.785-0.377l4.33-6.7776c1.186-1.7888 0.732-1.817-0.779-2.584-2.386-1.132-4.703-1.7129-6.61-1.7168zm-19.138 0.0019c-0.7694 0.0234-1.5422 0.2706-2.2168 0.7559l-0.8105 0.584c-1.7988 1.2942-2.2064 3.7836-0.9121 5.5816l2.3359 3.248 2.3379 3.247 0.4043-0.291 4.6738 6.492c1.294 1.799 3.783 2.206 5.582 0.912s2.204-3.785 0.91-5.584l-4.672-6.494 0.407-0.291-2.336-3.2483-2.336-3.2461c-0.809-1.1243-2.085-1.7049-3.3675-1.6661zm18.936 0.4707c1.636 0.0034 4.326 0.5034 6.373 1.4747 1.639 0.8017 1.609 0.9022 0.459 2.5586l-4.221 6.6135c-0.633 0.983-0.662 0.834-2.011-0.348-3.438-2.885-5.508-6.558-4.233-8.5624 0.645-1.0079 1.997-1.7397 3.633-1.7364zm-18.873 0.0665c0.9789 0.0368 2.078 0.4812 2.877 1.4043l0.906 1.2519 1.742 2.4199 0.58 0.8032 1.165 1.619-1.045 0.752-1.377 0.99-0.606 0.437-0.439 0.317-0.604 0.435-2.4216 1.741-1.1641-1.618-0.5801-0.804-1.164-1.616-0.5782-0.804-1.1621-1.617c-0.9652-1.3418 0.0752-3.7136 0.6797-4.1625 0.6582-0.5115 0.92-0.6962 1.6484-1.1895 0.4106-0.2564 0.9557-0.3814 1.543-0.3593zm28.68 3.1289c-0.35 0.0355-0.647 0.4521-1.198 1.3144l-4.357 6.826c-1.205 1.882-0.701 1.855 0.836 2.631 4.747 2.233 9.203 2.28 10.697-0.059 1.491-2.342-0.432-6.369-4.461-9.7359-0.766-0.6658-1.168-1.0121-1.517-0.9765zm0.177 0.6347c0.256 0.062 0.601 0.3952 1.276 0.9864 3.438 2.8843 5.507 6.5583 4.232 8.5623-0.644 1.008-1.996 1.742-3.633 1.738-1.636-0.003-4.325-0.503-6.373-1.474-1.639-0.802-1.609-0.904-0.459-2.561l4.219-6.613c0.317-0.4918 0.483-0.7007 0.738-0.6387zm-21.705 4.4497c1.544 2.144 3.164 4.394 4.707 6.539 1.003 1.498 0.798 3.608-0.834 4.838-1.136 0.856-3.546 0.959-4.902-0.876-1.543-2.143-3.086-4.284-4.631-6.427 0.831-0.598 2.407-1.731 3.238-2.328l2.422-1.746zm18.782 12.195c-1.661-0.05-3.355 0.333-4.907 1.195-4.141 2.312-5.903 7.279-4.269 11.629 0.315 0.903 0.769 0.656 1.189 0.422l14.959-8.324c0.416-0.232 0.732-0.603 0.248-1.266-1.779-2.285-4.453-3.573-7.22-3.656zm-0.174 0.531c2.514 0.075 4.998 0.936 6.615 2.998 0.44 0.599 0.478 0.832 0.1 1.041l-14.649 8.156c-0.382 0.212-0.438 0.341-0.724-0.474-1.485-3.927 0.437-8.556 4.201-10.643 1.41-0.778 2.947-1.123 4.457-1.078zm-16.787 1.77c-0.136 0.006-0.268 0.034-0.391 0.089l-12.252 5.573c-1.0134 0.461-1.4965 2.644-0.664 3.318l9.311 7.533c0.74 0.599 2.774-0.325 2.994-1.322l2.9-13.162c0.124-0.563-0.203-1.159-0.683-1.559-0.361-0.299-0.807-0.489-1.215-0.47zm-0.02 0.64c0.91-0.077 1.601 0.497 1.19 2.311l-2.493 11.304c-0.028 1.21-1.794 2.353-2.623 1.645l-8.4782-6.859c-1.3613-0.705-0.7539-2.567 0.0274-2.928 3.3828-1.342 11.139-5.062 11.428-5.199 0.319-0.149 0.646-0.248 0.949-0.274zm25.045 2.602c-0.215-0.022-0.448 0.108-0.682 0.238l-14.884 8.283c-0.439 0.244-0.776 0.591-0.284 1.266 2.845 3.668 7.995 4.777 12.137 2.475 4.129-2.305 5.896-7.25 4.287-11.59-0.162-0.477-0.359-0.65-0.574-0.672zm-0.187 0.59c0.097 0.043 0.183 0.213 0.326 0.621 1.485 3.926-0.436 8.557-4.199 10.644-1.411 0.778-2.95 1.124-4.459 1.078-2.515-0.074-4.999-0.935-6.616-2.998-0.44-0.598-0.477-0.833-0.099-1.043l14.648-8.156c0.191-0.105 0.301-0.19 0.399-0.146z" fill-rule="evenodd" transform="scale(.26458)" stroke-width=".99999" fill="#333"/>
</svg>
